X: 3151
T: Beauty Spot, The
R: reel
M: 4/4
K: Dmixolydian
~A3G AddB|~c3G E~G3|AAGB AAde|cBcG EDDB|
AAGB AAde|~c3G E~G3|AAGB AAde|cBcG EDDg||
eddg ed (3Bcd|eddg egag|eddg edcA|GG (3Bcd e2dg|
eddg ed (3Bcd|eddg e ~g3|aged dcAF|GA (3Bcd e2dB||

